X:240
T:He Who Would Valiant Be
%%stretchlast false
M:4/4
L:1/4
K:C clef=C1
"^I"[CEGc]3/2 "^ii"[CFGd]/ "^I"[CGce] [CEGc] | "^vi"[A,Cce]/ "^IV¹"[A,Ccf]/ "^V"[G,DBg] "^IV"[F,FAa]2 | "^V7³"[FGBg]2 "^I¹"[EGcg] [EGc] | "^V7²"[DFGB] "^I"[CEGc] [CEGc]2 | [CEGc]3/2 "^ii"[CFGd]/ "^I"[CGce] [CEGc] | "^vi"[A,Cce]/ "^IV¹"[A,Ccf]/ "^V"[G,DBg] "^IV"[F,FAa]2 | "^V7³"[FGBg]2 "^I¹"[EGcg] [EGc] | "^V7²"[DFGB] "^I"[CEGc] [CEGc]2 | [CEcg]3/2 "^iii7²"[B,Edg]/ "^vi"[A,Aec'] "^vi¹"[CAea] | "^viiø7¹"[DAfb] "^III+"[E^Gec']/ "^III7"[E^Gdb]/ "^IV"[FAca]2 | "^IV¹"[A,Fca] "^V¹"[B,Ddg] "^I"[CGce]/ [CGcd]/ "^I¹"[EGc] | "^I"[CEce] "^IV¹"[A,Ccf] "^V"[G,DBg] "^V²"[DGBg] | "^V7³"[FGBg] "^I¹"[EGcc'] "^V7²"[DFBg] "^I"[CEcg]/ [CEcg]/ | "^IV"[Fca]/ "^iv"[Fcg]/ "^ii7"[DAcf]/ "^vi"[DAce]/ "^V"[GBd] "^vii"[FBa] | "^I¹"[EGcg] "^ii7"[DFAc] "^V7"[G,FGB] "^I"[CEGc]2 |]
